X: 39946
T: Thorn Tree, The
R: slip jig
M: 9/8
K: Eminor
|:EGE EDE G3|A3 AGA BGE|B2c AGF G2F|E3 GEE DB,A,|
B,2E EDE G3|A3 AGA BGE|B2c AGF G2A|BdB AFD E3:|
|:B2e ede g3|afd f2e dBA|B2e ede g3|aba fed ef/g/a|
b2b agf g2f|e2e gee dgf|e3 edB BAB|G2B AFD E3:|

